dist/svg/medical-duo-tone.svg

<svg xmlns="http://www.w3.org/2000/svg" viewBox="0 0 24 24"><path d="M8.82 2.277a.73.73 0 0 0-.538.514c-.027.096-.042 1.099-.042 2.798v2.648l-2.73.012c-2.49.01-2.741.017-2.855.08a.83.83 0 0 0-.373.462c-.059.213-.057 6.214.003 6.428.056.204.292.44.496.496.109.031.999.045 2.809.045h2.65v2.65c0 1.81.014 2.7.045 2.809.056.204.292.44.496.496.223.062 6.215.062 6.438 0a.82.82 0 0 0 .496-.496c.031-.109.045-.999.045-2.809v-2.65h2.65c1.81 0 2.7-.014 2.809-.045a.82.82 0 0 0 .496-.496c.06-.214.062-6.215.003-6.428a.83.83 0 0 0-.373-.462c-.114-.063-.365-.07-2.855-.08l-2.73-.012V5.589c0-1.699-.015-2.702-.042-2.798a.83.83 0 0 0-.373-.462c-.115-.063-.382-.07-3.265-.075-1.727-.004-3.194.006-3.26.023m5.42 4.164c0 2.33.008 2.701.062 2.83a.73.73 0 0 0 .398.413c.15.07.32.074 2.85.075l2.69.001v4.48l-2.69.001c-2.53.001-2.7.005-2.85.075a.73.73 0 0 0-.398.413c-.054.129-.062.5-.062 2.83v2.681H9.76v-2.681c0-2.33-.008-2.701-.062-2.83a.73.73 0 0 0-.398-.413c-.15-.07-.32-.074-2.85-.075l-2.69-.001V9.76h2.681c2.33 0 2.701-.008 2.83-.062a.73.73 0 0 0 .413-.398c.07-.15.074-.32.075-2.85l.001-2.69h4.48z"/></svg>

<svg fill="none" xmlns="http://www.w3.org/2000/svg" viewBox="0 0 24 24"><path d="M8.820 2.277 C 8.554 2.342,8.353 2.534,8.282 2.791 C 8.255 2.887,8.240 3.890,8.240 5.589 L 8.240 8.237 5.510 8.249 C 3.020 8.259,2.769 8.266,2.655 8.329 C 2.485 8.422,2.332 8.612,2.282 8.791 C 2.223 9.004,2.225 15.005,2.285 15.219 C 2.341 15.423,2.577 15.659,2.781 15.715 C 2.890 15.746,3.780 15.760,5.590 15.760 L 8.240 15.760 8.240 18.410 C 8.240 20.220,8.254 21.110,8.285 21.219 C 8.341 21.423,8.577 21.659,8.781 21.715 C 9.004 21.777,14.996 21.777,15.219 21.715 C 15.423 21.659,15.659 21.423,15.715 21.219 C 15.746 21.110,15.760 20.220,15.760 18.410 L 15.760 15.760 18.410 15.760 C 20.220 15.760,21.110 15.746,21.219 15.715 C 21.423 15.659,21.659 15.423,21.715 15.219 C 21.775 15.005,21.777 9.004,21.718 8.791 C 21.668 8.612,21.515 8.422,21.345 8.329 C 21.231 8.266,20.980 8.259,18.490 8.249 L 15.760 8.237 15.760 5.589 C 15.760 3.890,15.745 2.887,15.718 2.791 C 15.668 2.612,15.515 2.422,15.345 2.329 C 15.230 2.266,14.963 2.259,12.080 2.254 C 10.353 2.250,8.886 2.260,8.820 2.277 M14.240 6.441 C 14.240 8.771,14.248 9.142,14.302 9.271 C 14.384 9.468,14.506 9.595,14.700 9.684 C 14.850 9.754,15.020 9.758,17.550 9.759 L 20.240 9.760 20.240 12.000 L 20.240 14.240 17.550 14.241 C 15.020 14.242,14.850 14.246,14.700 14.316 C 14.506 14.405,14.384 14.532,14.302 14.729 C 14.248 14.858,14.240 15.229,14.240 17.559 L 14.240 20.240 12.000 20.240 L 9.760 20.240 9.760 17.559 C 9.760 15.229,9.752 14.858,9.698 14.729 C 9.616 14.532,9.494 14.405,9.300 14.316 C 9.150 14.246,8.980 14.242,6.450 14.241 L 3.760 14.240 3.760 12.000 L 3.760 9.760 6.441 9.760 C 8.771 9.760,9.142 9.752,9.271 9.698 C 9.468 9.616,9.595 9.494,9.684 9.300 C 9.754 9.150,9.758 8.980,9.759 6.450 L 9.760 3.760 12.000 3.760 L 14.240 3.760 14.240 6.441 " stroke="none" fill-rule="evenodd"/></svg>
